svg/battery_large_showing_terminals.svg

<svg xmlns="http://www.w3.org/2000/svg" width="24" height="24" viewBox="0 0 24 24"><path d="M22 8a2 2 0 0 0-2-2h-2V4.8a1.37 1.37 0 0 0 0-.53.58.58 0 0 0-.22-.22 1.37 1.37 0 0 0-.53 0H14.8a1.37 1.37 0 0 0-.53 0 .58.58 0 0 0-.22.22 1.37 1.37 0 0 0-.05.53V6h-4V4.8a1.37 1.37 0 0 0 0-.53.58.58 0 0 0-.22-.22A1.37 1.37 0 0 0 9.2 4H6.8a1.37 1.37 0 0 0-.53 0 .58.58 0 0 0-.22.22A1.37 1.37 0 0 0 6 4.8V6H4a2 2 0 0 0-2 2v10a2 2 0 0 0 2 2h16a2 2 0 0 0 2-2zm-11.5 6H9v1.5H7V14H5.5v-2H7v-1.5h2V12h1.5zm7.5 0h-4v-2h4z" fill-rule="evenodd"/><path fill="none" d="M0 0h24v24H0z"/></svg>

<svg xmlns="http://www.w3.org/2000/svg" width="24" height="24" viewBox="0 0 24 24"><path d="M22,8a2,2,0,0,0-2-2H18V4.8A1.37,1.37,0,0,0,18,4.27a.58.58,0,0,0-.22-.22,1.37,1.37,0,0,0-.53,0H14.8a1.37,1.37,0,0,0-.53,0,.58.58,0,0,0-.22.22A1.37,1.37,0,0,0,14,4.8V6H10V4.8A1.37,1.37,0,0,0,10,4.27a.58.58,0,0,0-.22-.22A1.37,1.37,0,0,0,9.2,4H6.8a1.37,1.37,0,0,0-.53,0,.58.58,0,0,0-.22.22A1.37,1.37,0,0,0,6,4.8V6H4A2,2,0,0,0,2,8V18a2,2,0,0,0,2,2H20a2,2,0,0,0,2-2ZM10.5,14H9v1.5H7V14H5.5V12H7V10.5H9V12h1.5ZM18,14H14V12h4Z" fill-rule="evenodd"/><rect width="24" height="24" fill="none"/></svg>
